!!!COM: Beethoven, Ludwig van
!!!CDT: 1770///-1827///
!!!OTL: Piano Sonata no. 14 in C-sharp minor
!!!OTP: moonlight
!!!ODT: 1801///
!!!OPS: 27
!!!ONM: 2
!!!OMV: 1
!!!OMD: Adagio sostenuto
!!!ODE: Gr&auml;fin Giulietta Guicciardi
**kern	**kern	**dynam
*staff2	*staff1	*staff1/2
*Ipiano	*Ipiano	*Ipiano
*clefF4	*clefG2	*clefG2
*k[f#c#g#d#]	*k[f#c#g#d#]	*k[f#c#g#d#]
*c#:	*c#:	*c#:
*M2/2	*M2/2	*M2/2
*MM54	*MM54	*MM54
=1-	=1-	=1-
!!LO:TX:i:meter:t=si deve suonare tutto questo pezzo delicatissimamente e senza sordini
!	!	!LO:DY:t=sempre %s senza sordini
1CC# 1C#	12G#L	pp
.	12c#	.
.	12eJ	.
.	12G#L	.
.	12c#	.
.	12eJ	.
.	12G#L	.
.	12c#	.
.	12eJ	.
.	12G#L	.
.	12c#	.
.	12eJ	.
*Xtuplet	*Xtuplet	*
=2	=2	=2
1BBB 1BB	12G#L	.
.	12c#	.
.	12eJ	.
.	12G#L	.
.	12c#	.
.	12eJ	.
.	12G#L	.
.	12c#	.
.	12eJ	.
.	12G#L	.
.	12c#	.
.	12eJ	.
=3	=3	=3
2AAA 2AA	12AL	.
.	12c#	.
.	12eJ	.
.	12AL	.
.	12c#	.
.	12eJ	.
2FFF# 2FF#	12AL	.
.	12dn	.
.	12f#J	.
.	12AL	.
.	12d	.
.	12f#J	.
=4	=4	=4
2GGG# 2GG#	12G#L	.
.	12B#	.
.	12f#J	.
.	12G#L	.
.	12c#	.
.	12eJ	.
2GGG#/ 2GG#/	12G#L	.
.	12c#	.
.	12d#XJ	.
.	12F#<L	.
.	12B#	.
.	12d#J	.
!!LO:LB:g=z
=5	=5	=5
*	*^	*
1CC# 1GG# 1C#	2r	12E<L	.
.	.	12G#<	.
.	.	12c#<J	.
.	.	12G#</L	.
.	.	12c#\	.
.	.	12eJ\	.
.	4r	12G#L	.
.	.	12c#	.
.	.	12eJ	.
!	!	!	!LO:DY:a
.	8.g#L	12G#L	pp
.	.	12c#	.
.	.	12eJ	.
.	16g#Jk	.	.
=6	=6	=6	=6
1BBB# 1GG# 1BB#	2.g#	12G#L	.
.	.	12d#	.
.	.	12f#J	.
.	.	12G#L	.
.	.	12d#	.
.	.	12f#J	.
.	.	12G#L	.
.	.	12d#	.
.	.	12f#J	.
.	8.g#L	12G#L	.
.	.	12d#	.
.	.	12f#J	.
.	16g#Jk	.	.
=7	=7	=7	=7
((2CC# 2C#	(2g#	12G#L	.
.	.	12c#	.
.	.	12eJ	.
.	.	12G#L	.
.	.	12c#	.
.	.	12eJ	.
2FFF# 2FF#))	2a	12AL	.
.	.	12c#	.
.	.	12f#J	.
.	.	12AL	.
.	.	12c#	.
.	.	12f#J	.
=8	=8	=8	=8
2BBB 2BB	2g#	12G#L	.
.	.	12B	.
.	.	12eJ	.
.	.	12G#L	.
.	.	12B	.
.	.	12eJ	.
2BBB 2BB	4f#	12AL	.
.	.	12B	.
.	.	12d#J	.
.	4b	12AL	.
.	.	12B	.
.	.	12d#J	.
!!LO:LB:g=z
=9	=9	=9	=9
1EE 1E	4e)	12G#L	.
.	.	12B	.
.	.	12eJ	.
.	4r	12G#L	.
.	.	12B	.
.	.	12eJ	.
.	2r	12G#L	.
.	.	12B	.
.	.	12eJ	.
.	.	12G#L	.
.	.	12B	.
.	.	12eJ	.
=10	=10	=10	=10
1EE 1E	2r	12GnL	.
.	.	12B	.
.	.	12eJ	.
.	.	12GL	.
.	.	12B	.
.	.	12eJ	.
.	4r	12GL	.
.	.	12B	.
.	.	12eJ	.
.	8.gnL	12GL	.
.	.	12B	.
.	.	12eJ	.
.	16gJk	.	.
=11	=11	=11	=11
1DDn 1Dn	2.gn	12GnL	.
.	.	12B	.
.	.	12fnJ	.
.	.	12GL	.
.	.	12B	.
.	.	12fJ	.
.	.	12GL	.
.	.	12B	.
.	.	12fJ	.
.	8.gL	12GL	.
.	.	12B	.
.	.	12fJ	.
.	16gJk	.	.
=12	=12	=12	=12
(4CCn 4Cn	(2.gn	12GnL	.
.	.	12cn	.
.	.	12eJ	.
4BBB 4BB	.	12GL	.
.	.	12c	.
.	.	12eJ	.
2AAA#) 2AA#	.	12GL	.
.	.	12c#	.
.	.	12eJ	.
.	4f#X)	12F#XL	.
.	.	12c#	.
.	.	12eJ	.
*	*v	*v	*
!!LO:LB:g=z
=13	=13	=13
*^	*	*
!	!	!LO:S:a	!
12F#L	(2BBB 2BB	(2f#	.
12B	.	.	.
12dnJ	.	.	.
12F#L	.	.	.
12B	.	.	.
12dJ	.	.	.
12GnL	4EE	4gn	.
12B	.	.	.
12c#J	.	.	.
12EL	4GGn)	4e)	.
12B	.	.	.
12c#J	.	.	.
=14	=14	=14	=14
12F#L	2FF#	2f#	.
12B	.	.	.
12dnJ	.	.	.
12F#L	.	.	.
12B	.	.	.
12dJ	.	.	.
12F#L	2FFF# 2FF#	2f#	.
12A#	.	.	.
12c#J	.	.	.
12F#L	.	.	.
12A#	.	.	.
12c#J	.	.	.
*v	*v	*	*
=15	=15	=15
*	*^	*
[1BBB [1BB	4B	12BL	.
.	.	12dn	.
.	.	12f#J	.
.	4r	12BL	.
.	.	12d	.
.	.	12f#J	.
.	4r	12BL	.
.	.	12d#	.
.	.	12f#J	.
.	(4b	12BL	.
.	.	12d#	.
.	.	12f#J	.
=16	=16	=16	=16
4BBB] 4BB]	2.ccn	12BL	.
.	.	12e	.
.	.	12gnJ	.
!	!	!	!LO:HP:b=2
(4EE 4E	.	12BL	<
.	.	12e	.
.	.	12gJ	.
!	!	!	!LO:HP:b=2:vgrp=1
4GGn 4Gn	.	12BL	[ >
.	.	12e	.
.	.	12gJ	.
!	!	!	!LO:HP:vgrp=1
4EE 4E)	4a#	12BL	]
.	.	12e	.
.	.	12gJ	.
!!LO:LB:g=z
=17	=17	=17	=17
[1BBB [1BB	2.b)	12BL	.
.	.	12d#X	.
.	.	12f#J	.
.	.	12BL	.
.	.	12d#	.
.	.	12f#J	.
.	.	12BL	.
.	.	12d#	.
.	.	12f#J	.
.	(4b	12BL	.
.	.	12d#	.
.	.	12f#J	.
=18	=18	=18	=18
4BBB] 4BB]	2.ccn	12BL	.
.	.	12e	.
.	.	12gnJ	.
!	!	!	!LO:HP:b=2:vgrp=2
(4EE 4E	.	12BL	<
.	.	12e	.
.	.	12gJ	.
!	!	!	!LO:HP:b=2:vgrp=2
4GGn 4Gn	.	12BL	[ >
.	.	12e	.
.	.	12gJ	.
4EE 4E)	4a#	12BL	]
.	.	12e	.
.	.	12gJ	.
=19	=19	=19	=19
2BBB 2BB	2b)	12BL	.
.	.	12d#X	.
.	.	12f#J	.
.	.	12BL	.
.	.	12d#	.
.	.	12f#J	.
2GGG#X 2GG#X	2b	12BL	.
.	.	12dn	.
.	.	12e#J	.
.	.	12BL	.
.	.	12d	.
.	.	12e#J	.
=20	=20	=20	=20
2EEE# 2EE#	(2b	12BL	.
.	.	12c#	.
.	.	12g#XJ	.
.	.	12BL	.
.	.	12c#	.
.	.	12g#J	.
2FFF# 2FF#	2an)	12AL	.
.	.	12c#	.
.	.	12f#J	.
.	.	12AL	.
.	.	12c#	.
.	.	12f#J	.
*	*v	*v	*
!!LO:PB:g=z
=21	=21	=21
*^	*	*
12GnL	2BBB 2BB	(2gn	.
12B	.	.	.
12dnJ	.	.	.
12GL	.	.	.
12B	.	.	.
12dJ	.	.	.
12F#L	2BBB# 2BB#	2f#)	.
12A	.	.	.
12d#J	.	.	.
12F#L	.	.	.
12A	.	.	.
12d#J	.	.	.
=22	=22	=22	=22
12C#L	2CC#	2c#	.
12F#	.	.	.
12AJ	.	.	.
12C#L	.	.	.
12F#	.	.	.
12AJ	.	.	.
12C#L	2CC#	4c#	.
12F#	.	.	.
12G#J	.	.	.
12C#L	.	4c#	.
12E#	.	.	.
12G#J	.	.	.
*v	*v	*	*
=23	=23	=23
*	*^	*
1FFF# 1CC# 1FF#	4F#<	12F#<L<	.
.	.	12A<	.
.	.	12c#<J	.
.	4r	12AL	.
.	.	12c#	.
.	.	12f#J	.
.	4r	12c#L	.
.	.	12f#	.
.	.	12aJ	.
.	8.cc#L	12c#L	.
.	.	12f#	.
.	.	12aJ	.
.	16cc#Jk	.	.
=24	=24	=24	=24
1EE# 1C# 1E#	2.cc#	12c#L	.
.	.	12g#	.
.	.	12bJ	.
.	.	12c#L	.
.	.	12g#	.
.	.	12bJ	.
.	.	12c#L	.
.	.	12g#	.
.	.	12bJ	.
.	8.cc#L	12c#L	.
.	.	12g#	.
.	.	12bJ	.
.	16cc#Jk	.	.
!!LO:LB:g=z
=25	=25	=25	=25
(2FF# 2F#	2cc#	12c#L	.
.	.	12f#	.
.	.	12aJ	<
.	.	12c#L	.
.	.	12f#	.
.	.	12aJ	.
4DD#X 4D#X	(4b#	12B#L	.
.	.	12f#	.
.	.	12aJ	.
4CC#) 4C#	4cc#)	12c#L	.
.	.	12f#	.
.	.	12aJ	.
=26	=26	=26	=26
2.BBB# 2.GG# 2.BB#	2.dd#	12d#L	.
.	.	12f#	.
.	.	12g#J	.
.	.	12d#L	.
.	.	12f#	.
.	.	12g#J	.
.	.	12d#L	.
.	.	12f#	.
.	.	12g#J	.
4BBB# 4GG# 4BB#	4dd#	12d#L	.
.	.	12f#	.
.	.	12g#J	.
=27	=27	=27	=27
(2CC# 2GG# 2C#	(2ee	12eL	.
.	.	12g#	.
.	.	12cc#J	>
.	.	12eL	.
.	.	12g#	.
.	.	12cc#J	.
4FFF# 4FF#	4dd#	12d#L	.
.	.	12f#	.
.	.	12aJ	.
4FFF##) 4FF##	4cc#)	12c#L	.
.	.	12e	.
.	.	12a#J	.
=28	=28	=28	=28
1GGG# 1GG#	4ryy	12b#L	p
.	.	12B#	.
.	.	12d#J	.
.	(4g#	12g#L	<
.	.	12B#	.
.	.	12d#J	.
.	4a	12aL	[
.	.	12B#	>
.	.	12d#J	.
.	4f#	12f#L)	.
.	.	12B#	]
.	.	12d#J	.
*	*v	*v	*
!!LO:LB:g=z
=29	=29	=29
*^	*	*
4ryy	1GGG# 1GG#	12r	.
.	.	12B#L	.
.	.	12d#J	.
!	!	!	!LO:HP:b=2
(<4G#\	.	12G#<L	<
.	.	12B#X<	.
.	.	12d#J	.
!	!	!	!LO:HP:b=2
4A\	.	12A<L	[ >
.	.	12B#<	.
.	.	12d#J	.
4F#\)	.	12F#<L	]
.	.	12B#<	.
.	.	12d#J	.
*v	*v	*	*
=30	=30	=30
*	*^	*
1GGG# 1GG#	4ryy	12E<L	.
.	.	12e	.
.	.	12g#J	.
.	(4cc#	12cc#L	<
.	.	12e	.
.	.	12g#J	.
.	4ee	12eeL	.
.	.	.	[
.	.	12e	.
.	.	12g#J	>
.	4cc#)	12cc#L	.
.	.	12e	.
.	.	12g#J	.
.	.	.	]
*	*v	*v	*
=31	=31	=31
*^	*	*
4ryy	1GGG# 1GG#	12r<	.
.	.	12E<L	.
.	.	12G#<J	.
!LO:S:b	!	!	!
(4c#\	.	12c#<L	<
.	.	12E<	.
.	.	12G#<J	.
4e\	.	12e<L	[
.	.	12E<	.
.	.	12G#<J	.
4c#\)	.	12c#<L)	>
.	.	12E<	.
.	.	12G#<J	.
.	.	.	]
*v	*v	*	*
=32	=32	=32
!	!LO:TX:b:i:t=legato	!
1GGG# 1GG#	(>12D#<L	.
.	12A<	.
.	12F#<J	.
.	12B#<L	.
.	12A<	.
.	12d#J	.
.	12B#XL	.
.	12f#	.
.	12d#J	.
.	12aL	.
.	12f#	.
.	12b#J)	.
!!LO:LB:g=z
=33	=33	=33
!	!LO:S:a	!
1GGG# 1GG#	(12E<L	.
.	12c#<	.
.	12G#<J	.
.	12eL<	.
.	12c#	.
.	12g#J	.
.	12eL<	.
.	12cc#	.
.	12g#J	.
.	12eeL	.
.	12cc#	.
.	12g#J)	.
=34	=34	=34
!	!LO:S:a	!
1GGG# 1GG#	(12c#L	.
.	12f##	.
.	12eJ	.
.	12a#L<	.
.	12f##	.
.	12cc#J	.
.	12a#L	.
.	12ee	.
.	12cc#J	.
.	12ff##L	.
.	12ee	.
.	12aa#J)	.
=35	=35	=35
[1GGG# [1GG#	(12f#XL<	.
.	12b#	.
.	12anJ	.
.	12dd#XL	.
.	12b#	.
.	12ff#J	.
.	12dd#L	.
.	12aan	.
.	12ff#J	.
.	12bb#L	.
.	12aa	.
.	12ddd#XJ)	.
=36	=36	=36
1GGG#_ 1GG#_	(>12bb#L	.
.	12ff#	.
.	12aaJ	.
.	12dd#L	.
.	12ff#	.
.	12b#J	.
.	12dd#L	.
.	12a	.
.	12b#J	.
.	12f#L	.
.	12a	.
.	12d#J	.
!!LO:LB:g=z
=37	=37	=37
1GGG#] 1GG#]	12f#L	.
.	12B#	.
.	12d#J	.
.	12AL	.
.	12B#	.
.	12F#<J)	.
*	*^	*
.	(12A<L	12ryy	.
.	12D#<	6D#<\	.
.	12F#<J	.	.
.	12C#<L	6.C#<\	.
.	12F#<	.	.
.	12A<J)	.	.
*	*v	*v	*
=38	=38	=38
*^	*	*
2BB#\	1GGG# 1GG#	12BB#<L	.
.	.	12F#<	.
.	.	12G#<J	.
.	.	12A<L	.
.	.	12G#<	.
.	.	12F#<J	.
(<4D#\	.	12D#<L	.
.	.	12F#<	.
.	.	12A<J	.
4C#\)	.	12C#<L	.
.	.	12F#<	.
.	.	12A<J	.
=39	=39	=39	=139
2BB#\	1GGG# 1GG#	12BB#<L	.
.	.	12F#<	.
.	.	12G#<J	.
.	.	12A<L	.
.	.	12G#<	.
.	.	12F#<J	.
(<4Dn\	.	12Dn<L	.
.	.	12F#<	.
.	.	12A<J	.
4C#\)	.	12C#<L	.
.	.	12F#<	.
.	.	12A<J	.
=40	=40	=40	=40
2BB#\	(2GGG# 2GG#	12BB#<L	>
.	.	12F#<	.
.	.	12G#<J	.
.	.	12A<L	.
.	.	12G#<	.
.	.	12F#<J	.
2ryy	2AAA 2AA	12C#<L	.
.	.	12E<	.
.	.	12c#<J	.
.	.	12C#<L	.
.	.	12E<	.
.	.	12c#<J	.
!!LO:LB:g=z
=41	=41	=41	=41
12D#L	2FFF# 2FF#	1ryy	.
12A	.	.	.
12c#J	.	.	.
12D#L	.	.	.
12A	.	.	.
12c#J	.	.	.
12D#L	2GGG#) 2GG#	.	.
12G#	.	.	.
12B#J	.	.	.
12D#L	.	.	.
12F#	.	.	.
12B#J	.	.	.
=42	=42	=42	=42
*	*	*^	*
!	!	!	!	!LO:DY:b=2
12EL	1CC# 1GG# 1C#	2.ryy	4ryy	pp
12G#	.	.	.	.
12c#J	.	.	.	.
2.ryy	.	.	12G#</L	.
.	.	.	12c#\	.
.	.	.	12eJ\	.
.	.	.	12G#L<	.
.	.	.	12c#	.
.	.	.	12eJ	.
!	!	!	!	!LO:DY:a
.	.	8.g#L	12G#L	pp
.	.	.	12c#	.
.	.	.	12eJ	.
.	.	16g#Jk	.	.
*v	*v	*	*	*
=43	=43	=43	=43
1BBB# 1GG# 1BB#	2.g#	12G#L	.
.	.	12d#	.
.	.	12f#J	.
.	.	12G#L	.
.	.	12d#	.
.	.	12f#J	.
.	.	12G#L	.
.	.	12d#	.
.	.	12f#J	.
.	8.g#L	12G#L	.
.	.	12d#	.
.	.	12f#J	.
.	16g#Jk	.	.
=44	=44	=44	=44
(>2CC# 2C#	(2g#	12G#L	.
.	.	12c#	.
.	.	12eJ	.
.	.	12G#L	.
.	.	12c#	.
.	.	12eJ	.
2FFF# 2FF#)	2a	12AL	.
.	.	12c#	.
.	.	12f#J	.
.	.	12AL	.
.	.	12c#	.
.	.	12f#J	.
!!LO:LB:g=z
=45	=45	=45	=45
2BBB 2BB	2g#	12G#L	.
.	.	12B	.
.	.	12eJ	.
.	.	12G#L	.
.	.	12B	.
.	.	12eJ	.
2BBB 2BB	4f#	12AL	.
.	.	12B	.
.	.	12d#J	.
.	4b	12AL	.
.	.	12B	.
.	.	12d#J	.
=46	=46	=46	=46
1EE 1E	4e)	12G#L	.
.	.	12B	.
.	.	12eJ	.
.	4r	12BL	.
.	.	12e	.
.	.	12g#J	.
.	4r	12BL	.
.	.	12e	.
.	.	12g#J	.
.	8.bL	12BL	.
.	.	12e	.
.	.	12g#J	.
.	16bJk	.	.
=47	=47	=47	=47
1DD# 1D#	2.b	12BL	.
.	.	12f#	.
.	.	12aJ	.
.	.	12BL	.
.	.	12f#	.
.	.	12aJ	.
.	.	12BL	.
.	.	12f#	.
.	.	12aJ	.
.	8.bL	12BL	.
.	.	12f#	.
.	.	12aJ	.
.	16bJk	.	.
=48	=48	=48	=48
(2EE 2E	(2b	12BL	.
.	.	12e	.
.	.	12g#J	<
.	.	12BL	.
.	.	12e	.
.	.	12g#J	.
4DD# 4D#	4b#	12B#L	.
.	.	12f#	.
.	.	12g#J	.
4CC#) 4C#	4cc#)	12c#L	.
.	.	12e	.
.	.	12g#J	.
!!LO:LB:g=z
=49	=49	=49	=49
(2BBB# 2GG# 2BB#	(2dd#	12d#L	p
.	.	12f#	.
.	.	12g#J	.
.	.	12d#L	.
.	.	12f#	.
.	.	12g#J	.
2CC# 2GG# 2C#)	2ee	12eL	.
.	.	12g#	.
.	.	12cc#J	.
.	.	12eL	.
.	.	12g#	.
.	.	12cc#J	.
=50	=50	=50	=50
(2FFF# 2FF#	2ddn	12dnL	.
.	.	12f#	.
.	.	12aJ	.
.	.	12dL	.
.	.	12f#	.
.	.	12aJ	.
2GGG#) 2GG#	2b#)	12B#L	.
.	.	12f#	.
.	.	12g#J	.
.	.	12B#L	.
.	.	12f#	.
.	.	12g#J	.
=51	=51	=51	=51
[1CC# [1C#	2.cc#	12c#L	.
.	.	12e	.
.	.	12g#J	.
.	.	12c#L	.
.	.	12e	.
.	.	12g#J	.
.	.	12c#L	.
.	.	12e#	.
.	.	12g#J	.
.	(4cc#	12c#L	.
.	.	12e#	.
.	.	12g#J	.
=52	=52	=52	=52
4CC#] 4C#]	2.ddn	12c#L	.
.	.	12f#	.
.	.	12aJ	.
!!LO:DY:b
!	!	!	!LO:HP:b=2:vgrp:3
(4FF# 4F#	.	12c#L	<
.	.	12f#	.
.	.	12aJ	.
!	!	!	!LO:HP:b=2:vgrp=3
4AA/ 4A/	.	12c#L	[ >
.	.	12f#	.
.	.	12aJ	.
4FF#) 4F#	4b#)	12c#L	]
.	.	12f#	.
.	.	12aJ	.
!!LO:LB:g=z
=53	=53	=53	=53
[1CC# [1C#	2.cc#	12c#L	.
.	.	12e#	.
.	.	12g#J	.
.	.	12c#L	.
.	.	12e#	.
.	.	12g#J	.
.	.	12c#L	.
.	.	12e#	.
.	.	12g#J	.
.	(4cc#	12c#L	.
.	.	12e#	.
.	.	12g#J	.
=54	=54	=54	=54
4CC#] 4C#]	2.ddn	12c#L	.
.	.	12f#	.
.	.	12aJ	.
!	!	!	!LO:HP:b=2:vgrp=4
(4FF# 4F#	.	12c#L	<
.	.	12f#	.
.	.	12aJ	.
!	!	!	!LO:HP:b=2:vgrp=4
4AA/ 4A/	.	12c#L	[ >
.	.	12f#	.
.	.	12aJ	.
4FF#) 4F#	4b#)	12c#L	]
.	.	12f#	.
.	.	12aJ	.
=55	=55	=55	=55
2CC# 2C#	2cc#	12c#L	.
.	.	12e#	.
.	.	12g#J	.
.	.	12c#L	.
.	.	12e#	.
.	.	12g#J	.
2FFF# 2FF#	2cc#	12c#L	.
.	.	12f#	.
.	.	12aJ	.
.	.	12c#L	.
.	.	12f#	.
.	.	12aJ	.
=56	=56	=56	=56
2.DD# 2.D#	2.b	12BL	.
.	.	12f#	.
.	.	12aJ	.
.	.	12BL	.
.	.	12f#	.
.	.	12aJ	.
.	.	12BL	.
.	.	12f#	.
.	.	12aJ	.
4EE 4E	4b	12BL	.
.	.	12e	.
.	.	12g#J	.
!!LO:LB:g=z
=57	=57	=57	=57
(4CC# 4C#	4a	12AL	.
.	.	12e	.
.	.	12g#J	.
4DD# 4D#	4a	12AL	.
.	.	12d#	.
.	.	12f#J	.
4BBB# 4BB#	4g#	12G#L	.
.	.	12d#	.
.	.	12f#J	.
4CC#) 4C#	4g#	12G#L	.
.	.	12c#	.
.	.	12eJ	.
=58	=58	=58	=58
!	!	!	!LO:HP:a
(2AAA 2AA	(2f#	12F#L	<
.	.	12c#	.
.	.	12d#J	.
.	.	12F#L	.
.	.	12c#	.
.	.	12d#J	.
4GGG# 4GG#	4g#	12G#L	.
.	.	12c#	.
.	.	12d#J	.
4FFF#) 4FF#	4a)	12AL	[
.	.	12c#	.
.	.	12d#J	.
=59	=59	=59	=59
!	!	!	!LO:DY:rj
2GGG# 2GG#	2g#	12G#L	p
.	.	12c#	.
.	.	12eJ	.
.	.	12G#L	.
.	.	12c#	.
.	.	12eJ	.
2GGG# 2GG#	2g#	12F#L	.
.	.	12B#	.
.	.	12d#J	.
.	.	12F#L	.
.	.	12B#	.
.	.	12d#J	.
*	*v	*v	*
=60	=60	=60
*^	*	*
*	*^	*	*
12EL	2.GG#/	1CC#	4c#	pp
12G#	.	.	.	.
12c#J	.	.	.	.
2ryy	.	.	12G#<L	.
.	.	.	12c#	.
.	.	.	12eJ	.
.	.	.	12G#L	.
.	.	.	12c#	.
.	.	.	12eJ	.
4ryy	8.GG#L>	.	12G#L	.
.	.	.	12c#	.
.	.	.	12eJ	.
.	16GG#Jk	.	.	.
*	*v	*v	*	*
!!LO:LB:g=z
=61	=61	=61	=61
2.GG#	1BBB#	12G#L	.
.	.	12d#	.
.	.	12f#J	.
.	.	12G#L	.
.	.	12d#	.
.	.	12f#J	.
.	.	12G#L	.
.	.	12d#	.
.	.	12f#J	.
8.GG#L	.	12G#L	.
.	.	12d#	.
.	.	12f#J	.
16GG#Jk	.	.	.
=62	=62	=62	=62
!	!	!LO:S:a	!
2.GG#	1CC#	(12G#L	<
.	.	12e	.
.	.	12c#J	.
.	.	12g#L	.
.	.	12e	.
.	.	12cc#J	.
.	.	12g#L	.
.	.	12ee	.
.	.	12cc#J	.
8.GG#L	.	12gg#L	.
.	.	12ee	.
.	.	12cc#J)	.
16GG#Jk	.	.	[
=63	=63	=63	=63
*	*^	*	*
2.GG#	2.ryy	1GGG#	(12b#L	>
.	.	.	12dd#	.
.	.	.	12aJ	.
.	.	.	12b#L	.
.	.	.	12f#	.
.	.	.	12aJ	.
.	.	.	12d#L	.
.	.	.	12f#	.
.	.	.	(<12AJ	]
4B#>/	8.GG#L	.	12A<L)	.
.	.	.	12G#<	.
.	.	.	12F#<J)	.
.	16GG#Jk	.	.	.
*	*v	*v	*	*
=64	=64	=64	=64
2.GG#	1CC#	(>12E< 12c#<L	.
.	.	12e	<
.	.	12c#J	.
.	.	12g#L	.
.	.	12e	.
.	.	12cc#J	.
.	.	12g#L	.
.	.	12ee	.
.	.	12cc#J	.
8.GG#L	.	12gg#L	.
.	.	12ee	.
.	.	12cc#J	.
16GG#Jk	.	.	[
!!LO:LB:g=z
=65	=65	=65	=65
*^	*	*	*
2.ryy	2.GG#/	1GGG#	12b#L	>
.	.	.	12dd#	.
.	.	.	12aJ	.
.	.	.	12b#L	.
.	.	.	12f#	.
.	.	.	12aJ	.
.	.	.	12d#L	.
.	.	.	12f#	.
.	.	.	(<12AJ	]
4B#>/	8.GG#L	.	12A<L)	.
.	.	.	12G#<	.
.	.	.	12F#<J)	.
.	16GG#Jk	.	.	.
*v	*v	*	*	*
=66	=66	=66	=66
*^	*	*	*
(12E 12c#L	2GG#	[<1CC#	1ryy	>
12G#	.	.	.	.
12c#J	.	.	.	.
12eL	.	.	.	.
12c#	.	.	.	.
12G#J)	.	.	.	.
12r	2C#	.	.	.
(12EL	.	.	.	.
12G#J	.	.	.	.
12c#L	.	.	.	.
12G#	.	.	.	.
12EJ)	.	.	.	.
*v	*v	*	*	*
=67	=67	=67	=67
12r	2CC#] 2GG#	1ryy	.
(>12C#L	.	.	.
12EJ	.	.	.
12G#L	.	.	.
12E	.	.	.
12C#J)	.	.	.
2rA	(>12GG#L	.	.
.	12C#	.	.
.	12GG#J	.	.
.	12EEL	.	.
.	12GG#	.	.
.	12EEJ)	.	.
=68	=68	=68	=68
!	!	!	!LO:DY:b=2
2r	2CC#	1ryy	pp
!	!	!	!LO:DY:rj
2C# 2E 2G# 2c#	2CC# 2GG#	.	pp
=69	=69	=69	=69
1CC#; 1GG#; 1C#;	1E; 1G#; 1c#;	1ryy	.
*v	*v	*	*
!!LO:TX:b:rj:i:t=attacca
=||	=||	=||
*-	*-	*-
!!!RDF**kern: > = above
!!!RDF**kern: < = below
!!!verovio: beamFrenchStyle
!!!ENC: Craig Stuart Sapp
!!!LOR: Durand 1915, plates 9327/9328, Paul Dukas, ed.
!!!PED: Dukas, Paul
!!!URL-vhv: https://verovio.humdrum.org/?file=beethoven/sonatas/sonata14-1.krn
!!!URL-pdf: https://github.com/craigsapp/beethoven-piano-sonatas/blob/master/reference-edition/sonata14-1.pdf
!!!END: 2004/06/30
!!!EED: Craig Stuart Sapp
!!!EEV: 2021/01/07
